X:1
T:Nothing but Leaves
T:Nothing but Leaves
T:Silas Jones Vail
T:Lucy Elvina Metcalf Akerman, ca. 1858
T:Public Domain Courtesy of the Cyber Hymnal™
T:Public Domain Courtesy of the Cyber Hymnal™
C:Silas Jones Vail
Z:Public Domain
Z:Courtesy of the Cyber Hymnal™
%%score ( 1 2 ) ( 3 4 )
L:1/8
Q:1/4=110
M:6/8
K:Eb
V:1 treble 
V:2 treble 
V:3 bass 
V:4 bass 
V:1
 [GB]<[GB][GB] [GB]2 [FA] | [EG] [EG]2 [EG]2 [EG] | [FA]2 [FA] [FA]2 [DF] | [EG]3- [EG]2 [EG] | %4
w: 1.~No- thing but leaves! The|Spir- it grieves O’er|years of wast- ed|life; * O’er|
w: 2.~No- thing but leaves! No|ga- thered sheaves Of|life’s fair rip- ’ning|grain: * We|
w: 3.~No- thing but leaves! Sad|mem- ’ry weaves No|veil to hide the|past; * And|
w: 4.~Ah, who shall thus the|Mas- ter meet, And|bring but wi- thered|leaves? * Ah,|
 [EG]2 [EG] [EG]2 [EG] | [EA]2 [EB] [Ec]2 [EF] | [DF]2 [DF] [DF]2 [DF] | [EG]2 [DA] [EB]2 [EB] | %8
w: sins in- dulged while|con- science slept, O’er|vows and prom- is-|es un- kept, And|
w: sow our seeds; lo!|tares and weeds, Words,|i- dle words, for|ear- nest deeds— Then|
w: as we trace our|wear- y way, And|count each lost and|mis- spent day, We|
w: who shall, at the|Sav- ior’s feet, Be-|fore the aw- ful|judg- ment seat, Lay|
 [Ec]2 [Ec] (e>d)[Ec] | [E-B]3 [Ee]3 | z7/2 [CE]<[CE][CE]/ | [DF]3- [DF]3 | %12
w: reap, from years * of|strife— *|No- thing but|leaves! *|
w: reap, with toil * and|pain, *|No- thing but|leaves! *|
w: sad- ly find * at|last— *|No- thing but|leaves! *|
w: down, for gold- * en|sheaves, *|No- thing but|leaves! *|
 z7/2 [DF]/!fermata![DF][FA] | [EG]6 |] %14
w: No- thing but|leaves!|
w: No- thing but|leaves!|
w: No- thing but|leaves!|
w: No- thing but|leaves!|
V:2
 x6 | x6 | x6 | x6 | x6 | x6 | x6 | x6 | x3 E2 x | x6 | x6 | x6 | x6 | x6 |] %14
V:3
 [E,E]<[E,E][E,E] [E,E]2 [B,,D] | [C,C] [C,C]2 [C,C]2 [C,C] | [A,,C]2 [A,,C] [A,,C]2 [B,,B,] | %3
 [E,B,]3- [E,B,]2 [E,B,] | [E,B,]2 [E,B,] [E,B,]2 [_D,B,] | [C,A,]2 [B,,G,] [A,,A,]2 [=A,,C] | %6
 [B,,B,]2 [B,,B,] [B,,B,]2 [B,,B,] | [E,B,]2 [F,B,] [G,B,]2 [E,G,] | %8
 [A,,A,]2 [A,,A,] (C>B,)[A,,A,] | [E,G,]3- [E,G,]3 | z7/2 [C,G,]<[C,G,][C,G,]/ | %11
 [B,,B,]3- [B,,B,]3 | z7/2 [B,,B,]/!fermata![B,,B,][B,,B,] | [E,B,]6 |] %14
V:4
 x6 | x6 | x6 | x6 | x6 | x6 | x6 | x6 | x3 A,,2 x | x6 | x6 | x6 | x6 | x6 |] %14

